X:211 
T:Time Well Spent* (hornpipe)
B:CRE5.218 (gan ainm)
F:file ID: cre.5/211time_ws
M:4/4
%%Q:140
R:hornpipe
K:A
cB|AFEF ABcA|BAcA BAcB|AFEF ABcd|(3efe (3dcB ABcB|
AFEF ABcA|BAcA BAcB|AFEF ABcd|(3efe (3dcB A3||
a|eaca eaca|eaca babc'|eaca eaca|babc' a2a2|
eaca eaca|eaca bae2|(3agf (3gfe fecd|(3efe (3dcB A4|]

%%%

